svgs/1F631.svg

<svg xmlns="http://www.w3.org/2000/svg" xmlns:xlink="http://www.w3.org/1999/xlink" preserveAspectRatio="none" viewBox="0 0 72 72"><defs><linearGradient id="a" x1="64" x2="64" y1="66.688" y2="4.313" gradientUnits="userSpaceOnUse" spreadMethod="pad"><stop offset="0%" stop-color="#FCC21B"/><stop offset="15.294%" stop-color="#E5BF34"/><stop offset="47.451%" stop-color="#ABB973"/><stop offset="93.333%" stop-color="#4FAFD8"/><stop offset="100%" stop-color="#42ADE7"/></linearGradient><path id="b" fill="url(#a)" d="M127.8 93.35q0-26.95-8.55-47.05Q103.65 9.65 64 9.65T8.75 46.3Q.2 66.4.2 93.35q0 10.4 18.7 17.7 18.65 7.35 45.1 7.35 26.4 0 45.1-7.35 18.7-7.3 18.7-17.7z"/><path id="c" fill="#ED6C30" d="M64.5 61.55h-.9q-6.986.134-11.2 4.3-4.85 4.85-4.85 14.1V90.05q0 9.25 4.85 14.1 4.214 4.166 11.2 4.3h.9q6.984-.134 11.15-4.3 4.85-4.85 4.85-14.1V85.1v-5.15q0-9.25-4.85-14.1-4.166-4.166-11.15-4.3z"/><path id="d" fill="#E48C15" d="M26.15 67.35q-2.3-4.2-4.3-10.6-.7-2.4-2.2-3.7-1.7-1.6-4.15-1.3-2.3.25-3.35 1.75-1.45 2.1-1.35 7.45.15 7.15 1.55 13.4Q13.8 81 16.5 85.7q3.2 5.55 3.9 13.75.4 4.5.45 11.95.3 3.3 2.4 6 2.25 2.95 5.8 3.85 3.65 1.05 6.85-.4 3.35-1.55 3.4-4.8l.65-14.75q.3-4.15-.45-9.15-1.5-10.05-6.65-15.3l-.1-.15q-4.25-5-6.6-9.35m79.9-10.6q-1.95 6.4-4.2 10.6-2.35 4.35-6.65 9.35l-.1.15q-5.15 5.25-6.6 15.3-.75 5-.5 9.15l.65 14.75q.05 3.25 3.4 4.8 3.2 1.45 6.85.4 3.55-.9 5.85-3.85 2.05-2.7 2.35-6 .1-7.45.45-11.95.7-8.2 3.9-13.75 2.65-4.7 4.15-11.35 1.4-6.3 1.55-13.4.1-5.35-1.35-7.45-1.05-1.5-3.35-1.75-2.4-.3-4.15 1.3-1.5 1.3-2.25 3.7z"/><path id="e" fill="#FFF" d="M101.35 47.05q.8-6.85-3.2-12.2Q94.2 29.5 87.8 28.8q-6.35-.7-11.45 3.65-5.05 4.35-5.8 11.15-.75 6.85 3.2 12.2 4 5.35 10.35 6.05 6.4.7 11.45-3.65 5.05-4.3 5.8-11.15z"/><path id="f" fill="#FFF" d="M55.65 47.1q.7-6.85-2.75-12.2-3.4-5.35-8.95-6.05-5.45-.7-9.85 3.65-4.35 4.35-5 11.15-.65 6.85 2.75 12.2 3.45 5.35 8.9 6.05 5.55.7 9.9-3.65 4.35-4.3 5-11.15z"/></defs><use transform="scale(.5625)" xlink:href="#b"/><use transform="matrix(.48238 0 0 .50403 5.1 5.95)" xlink:href="#c"/><use transform="scale(.5625)" xlink:href="#d"/><use transform="matrix(.45547 -.16577 .19237 .52855 1.25 17.4)" xlink:href="#e"/><use transform="matrix(.52855 .19237 -.19237 .52855 9.25 -4.85)" xlink:href="#f"/></svg>

<svg xmlns="http://www.w3.org/2000/svg" version="1.1" xmlns:xlink="http://www.w3.org/1999/xlink" preserveAspectRatio="none" x="0px" y="0px" width="72px" height="72px" viewBox="0 0 72 72">
<defs>
<linearGradient id="Gradient_1" gradientUnits="userSpaceOnUse" x1="64" y1="66.6875" x2="64" y2="4.3125" spreadMethod="pad">
<stop  offset="0%" stop-color="#FCC21B"/>

<stop  offset="15.294117647058824%" stop-color="#E5BF34"/>

<stop  offset="47.450980392156865%" stop-color="#ABB973"/>

<stop  offset="93.33333333333333%" stop-color="#4FAFD8"/>

<stop  offset="100%" stop-color="#42ADE7"/>
</linearGradient>

<g id="Layer0_0_FILL">
<path fill="url(#Gradient_1)" stroke="none" d="
M 127.8 93.35
Q 127.8 66.4 119.25 46.3 103.65 9.65 64 9.65 24.35 9.65 8.75 46.3 0.2 66.4 0.2 93.35 0.2 103.75 18.9 111.05 37.55 118.4 64 118.4 90.4 118.4 109.1 111.05 127.8 103.75 127.8 93.35 Z"/>
</g>

<g id="Layer0_1_FILL">
<path fill="#ED6C30" stroke="none" d="
M 64.5 61.55
L 63.6 61.55
Q 56.6140625 61.684375 52.4 65.85 47.55 70.7 47.55 79.95 47.55 82.5162109375 47.55 85.15 47.55 87.4837890625 47.55 90.05 47.55 99.3 52.4 104.15 56.6140625 108.315625 63.6 108.45
L 64.5 108.45
Q 71.484375 108.315625 75.65 104.15 80.5 99.3 80.5 90.05 80.5 87.4837890625 80.5 85.1 80.5 82.5162109375 80.5 79.95 80.5 70.7 75.65 65.85 71.484375 61.684375 64.5 61.55 Z"/>
</g>

<g id="Layer0_2_MEMBER_0_FILL">
<path fill="#E48C15" stroke="none" d="
M 26.15 67.35
Q 23.85 63.15 21.85 56.75 21.15 54.35 19.65 53.05 17.95 51.45 15.5 51.75 13.2 52 12.15 53.5 10.7 55.6 10.8 60.95 10.95 68.1 12.35 74.35 13.8 81 16.5 85.7 19.7 91.25 20.4 99.45 20.8 103.95 20.85 111.4 21.15 114.7 23.25 117.4 25.5 120.35 29.05 121.25 32.7 122.3 35.9 120.85 39.25 119.3 39.3 116.05
L 39.95 101.3
Q 40.25 97.15 39.5 92.15 38 82.1 32.85 76.85
L 32.75 76.7
Q 28.5 71.7 26.15 67.35
M 106.05 56.75
Q 104.1 63.15 101.85 67.35 99.5 71.7 95.2 76.7
L 95.1 76.85
Q 89.95 82.1 88.5 92.15 87.75 97.15 88 101.3
L 88.65 116.05
Q 88.7 119.3 92.05 120.85 95.25 122.3 98.9 121.25 102.45 120.35 104.75 117.4 106.8 114.7 107.1 111.4 107.2 103.95 107.55 99.45 108.25 91.25 111.45 85.7 114.1 81 115.6 74.35 117 68.05 117.15 60.95 117.25 55.6 115.8 53.5 114.75 52 112.45 51.75 110.05 51.45 108.3 53.05 106.8 54.35 106.05 56.75 Z"/>
</g>

<g id="Layer0_3_MEMBER_0_FILL">
<path fill="#FFFFFF" stroke="none" d="
M 101.35 47.05
Q 102.15 40.2 98.15 34.85 94.2 29.5 87.8 28.8 81.45 28.1 76.35 32.45 71.3 36.8 70.55 43.6 69.8 50.45 73.75 55.8 77.75 61.15 84.1 61.85 90.5 62.55 95.55 58.2 100.6 53.9 101.35 47.05 Z"/>
</g>

<g id="Layer0_3_MEMBER_1_FILL">
<path fill="#FFFFFF" stroke="none" d="
M 55.65 47.1
Q 56.35 40.25 52.9 34.9 49.5 29.55 43.95 28.85 38.5 28.15 34.1 32.5 29.75 36.85 29.1 43.65 28.45 50.5 31.85 55.85 35.3 61.2 40.75 61.9 46.3 62.6 50.65 58.25 55 53.95 55.65 47.1 Z"/>
</g>
</defs>

<g id="Layer_1">
<g transform="matrix( 0.5625, 0, 0, 0.5625, 0,0) ">
<use xlink:href="#Layer0_0_FILL"/>
</g>

<g transform="matrix( 0.4823760986328125, 0, 0, 0.5040283203125, 5.1,5.95) ">
<use xlink:href="#Layer0_1_FILL"/>
</g>

<g transform="matrix( 0.5625, 0, 0, 0.5625, 0,0) ">
<use xlink:href="#Layer0_2_MEMBER_0_FILL"/>
</g>

<g transform="matrix( 0.455474853515625, -0.165771484375, 0.1923675537109375, 0.5285491943359375, 1.25,17.4) ">
<use xlink:href="#Layer0_3_MEMBER_0_FILL"/>
</g>

<g transform="matrix( 0.5285491943359375, 0.1923675537109375, -0.1923675537109375, 0.5285491943359375, 9.25,-4.85) ">
<use xlink:href="#Layer0_3_MEMBER_1_FILL"/>
</g>
</g>
</svg>
